X:204
T:Mulberry Garden,The. (p)1670.PLFD.204
T:Maid In The Mill,The. (p)1670.PLFD.204
M:6/4
L:1/4
Q:3/4=100
S:Playford, Dancing Master,4th Ed.,1670.
O:England
H:1670.
Z:Chris Partington
K:Dm
A |\
d2e fcA | GAF c2A | d2e fd2 | a3- a2 :| 
|: a |\
bag a2e | fd2 g2a | efg fed | ^c3- c2 | 
BAG2 F2E | Dd2 ^c2e | eAf e2d | d3-d2 :| 
